;Generated by Cura LulzBot Edition GCodeWriter Version: 3.6.20
;FLAVOR:Marlin
;TIME:2326
;Filament used: 0.986256m
;Layer height: 0.22
;Generated with Cura_SteamEngine 3.6.20
M82 ;absolute extrusion mode
;This G-Code has been generated specifically for the LulzBot TAZ 5 with standard extruder
M75			 ; start GLCD timer
M140 S70.0    ; start bed heating up
G90                      ; absolute positioning
M107                     ; disable fans
M82                      ; set extruder to absolute mode
G28 X0 Y0                ; home X and Y
G28 Z0                   ; home Z
G1 Z15.0 F175 ; move extruder up
M117 Heating...                     ; progress indicator message on LCD
M109 R215  ; wait for extruder to reach printing temp
M190 R70.0    ; wait for bed to reach printing temp
G92 E0                   ; set extruder position to 0
G1 F200 E0               ; prime the nozzle with filament
G92 E0                   ; re-set extruder position to 0
G1 F175       ; set travel speed
M203 X192 Y208 Z3        ; set limits on travel speed
M117 TAZ 5 Printing...   ; progress indicator message on LCD

M221 S100 T0
G92 E0
G1 F600 E-1
;LAYER_COUNT:64
;LAYER:0
M107
G0 F2625 X118.268 Y104.898 Z0.425
;TYPE:SKIRT
G1 F600 E0
G1 F900 X118.637 Y104.493 E0.01825
G1 X119.061 Y104.147 E0.03648
G1 X119.638 Y103.814 E0.05867
G1 X123.779 Y101.893 E0.21073
G1 X126.728 Y100.4 E0.32083
G1 X127.234 Y100.189 E0.33909
G1 X127.764 Y100.054 E0.35731
G1 X128.557 Y99.998 E0.38379
G1 X133.938 Y100.193 E0.56315
G1 X140.45 Y100.056 E0.78012
G1 X142.162 Y99.993 E0.83719
G1 X142.709 Y100.012 E0.85542
G1 X143.248 Y100.111 E0.87367
G1 X143.918 Y100.357 E0.89745
G1 X145.766 Y101.241 E0.96568
G1 X151.291 Y103.623 E1.1661
G1 X151.776 Y103.875 E1.18431
G1 X152.22 Y104.196 E1.20256
G1 X152.612 Y104.578 E1.22079
G1 X152.944 Y105.013 E1.23902
G1 X153.21 Y105.492 E1.25727
G1 X153.323 Y105.765 E1.26711
G1 X154.184 Y108.093 E1.34979
G1 X154.336 Y108.619 E1.36803
G1 X154.41 Y109.161 E1.38625
G1 X154.413 Y109.571 E1.39991
G1 X154.112 Y115.935 E1.61213
G1 X154.173 Y121.387 E1.79375
G1 X154.54 Y126.801 E1.97451
G1 X155.216 Y132.204 E2.15589
G1 X156.201 Y137.585 E2.33811
G1 X156.795 Y140.199 E2.4274
G1 X157.776 Y143.946 E2.55642
G1 X157.867 Y144.412 E2.57224
G1 X157.957 Y145.105 E2.59551
G1 X157.976 Y145.892 E2.62174
G1 X157.863 Y147.283 E2.66822
G1 X157.779 Y147.824 E2.68646
G1 X157.68 Y148.173 E2.69855
G1 X157.418 Y148.953 E2.72595
G1 X157.169 Y149.529 E2.74686
G1 X156.79 Y150.237 E2.77361
G1 X156.616 Y150.53 E2.78496
G1 X154.919 Y153.107 E2.88774
G1 X152.392 Y157.296 E3.0507
G1 X152.076 Y157.743 E3.06894
G1 X151.698 Y158.139 E3.08717
G1 X151.267 Y158.475 E3.10537
G1 X150.791 Y158.746 E3.12362
G1 X150.281 Y158.944 E3.14184
G1 X149.747 Y159.066 E3.16009
G1 X149.179 Y159.109 E3.17906
G1 X108.876 Y159.088 E4.52157
G1 X108.33 Y159.048 E4.53981
G1 X107.796 Y158.929 E4.55803
G1 X107.285 Y158.733 E4.57626
G1 X106.808 Y158.465 E4.59449
G1 X106.375 Y158.13 E4.61272
G1 X105.995 Y157.736 E4.63096
G1 X105.628 Y157.208 E4.65238
G1 X103.937 Y154.27 E4.7653
G1 X101.228 Y149.942 E4.93537
G1 X100.893 Y149.264 E4.96057
G1 X100.457 Y148.097 E5.00206
G1 X100.27 Y147.396 E5.02623
G1 X100.183 Y146.869 E5.04402
G1 X100.135 Y146.139 E5.06839
G1 X100.177 Y144.816 E5.11248
G1 X100.234 Y144.272 E5.1307
G1 X100.296 Y143.991 E5.14029
G1 X100.504 Y143.191 E5.16782
G1 X100.686 Y142.659 E5.18655
G1 X100.916 Y142.122 E5.20601
G1 X101.114 Y141.725 E5.22079
G1 X102.985 Y138.479 E5.34559
G1 X105.559 Y133.501 E5.53227
G1 X105.65 Y133.336 E5.53854
G1 X108.961 Y127.654 E5.7576
G1 X111.406 Y122.801 E5.93861
G1 X113.586 Y117.785 E6.1208
G1 X114.567 Y115.241 E6.21162
G1 X115.456 Y112.717 E6.30076
G1 X116.992 Y107.742 E6.4742
G1 X117.085 Y107.477 E6.48355
G1 X117.726 Y105.845 E6.54196
G1 X117.962 Y105.352 E6.56016
G1 X118.268 Y104.898 E6.5784
G0 F2625 X118.706 Y105.152
G1 F900 X119.059 Y104.785 E6.59536
G1 X119.465 Y104.478 E6.61232
G1 X119.848 Y104.268 E6.62687
G1 X123.991 Y102.346 E6.779
G1 X126.954 Y100.846 E6.88962
G1 X127.426 Y100.653 E6.90661
G1 X127.921 Y100.535 E6.92356
G1 X128.539 Y100.498 E6.94418
G1 X133.931 Y100.693 E7.12391
G1 X140.424 Y100.557 E7.34024
G1 X142.181 Y100.492 E7.39881
G1 X142.69 Y100.513 E7.41578
G1 X143.189 Y100.614 E7.43274
G1 X143.703 Y100.808 E7.45104
G1 X145.566 Y101.698 E7.51981
G1 X151.093 Y104.082 E7.72032
G1 X151.544 Y104.319 E7.73729
G1 X151.951 Y104.625 E7.75425
G1 X152.307 Y104.99 E7.77123
G1 X152.6 Y105.406 E7.78818
G1 X152.854 Y105.939 E7.80785
G1 X153.715 Y108.267 E7.89053
G1 X153.854 Y108.757 E7.90749
G1 X153.914 Y109.263 E7.92447
G1 X153.913 Y109.547 E7.93393
G1 X153.612 Y115.916 E8.14632
G1 X153.673 Y121.391 E8.3287
G1 X154.044 Y126.862 E8.51136
G1 X154.723 Y132.285 E8.69342
G1 X155.712 Y137.692 E8.87651
G1 X156.307 Y140.308 E8.96588
G1 X157.292 Y144.072 E9.09548
G1 X157.371 Y144.476 E9.10919
G1 X157.461 Y145.169 E9.13247
G1 X157.477 Y145.851 E9.1552
G1 X157.364 Y147.242 E9.20168
G1 X157.283 Y147.745 E9.21865
G1 X157.206 Y148.014 E9.22797
G1 X156.944 Y148.794 E9.25538
G1 X156.728 Y149.293 E9.27349
G1 X156.349 Y150.001 E9.30025
G1 X156.198 Y150.255 E9.31009
G1 X154.504 Y152.827 E9.41268
G1 X151.964 Y157.038 E9.57649
G1 X151.667 Y157.452 E9.59346
G1 X151.31 Y157.815 E9.61042
G1 X150.9 Y158.117 E9.62738
G1 X150.448 Y158.352 E9.64435
G1 X149.964 Y158.513 E9.66134
G1 X149.462 Y158.597 E9.6783
G1 X149.179 Y158.609 E9.68773
G1 X108.876 Y158.588 E11.03024
G1 X108.368 Y158.548 E11.04721
G1 X107.873 Y158.429 E11.06417
G1 X107.402 Y158.234 E11.08115
G1 X106.968 Y157.967 E11.09813
G1 X106.58 Y157.637 E11.11509
G1 X106.249 Y157.249 E11.13208
G1 X106.061 Y156.959 E11.14359
G1 X104.37 Y154.02 E11.25654
G1 X101.651 Y149.677 E11.42722
G1 X101.362 Y149.089 E11.44904
G1 X100.926 Y147.922 E11.49054
G1 X100.763 Y147.314 E11.51151
G1 X100.676 Y146.787 E11.5293
G1 X100.635 Y146.155 E11.5504
G1 X100.677 Y144.832 E11.59449
G1 X100.78 Y144.117 E11.61855
G1 X100.988 Y143.317 E11.64609
G1 X101.145 Y142.855 E11.66234
G1 X101.375 Y142.318 E11.6818
G1 X101.547 Y141.975 E11.69458
G1 X103.424 Y138.718 E11.8198
G1 X106.003 Y133.731 E12.00682
G1 X106.082 Y133.588 E12.01226
G1 X109.403 Y127.888 E12.232
G1 X111.851 Y123.03 E12.41321
G1 X114.059 Y117.95 E12.59772
G1 X115.035 Y115.419 E12.68808
G1 X115.93 Y112.88 E12.77776
G1 X117.47 Y107.889 E12.95174
G1 X117.55 Y107.66 E12.95982
G1 X118.191 Y106.028 E13.01823
G1 X118.414 Y105.57 E13.0352
G1 X118.706 Y105.152 E13.05218
G1 F600 E12.05218
G0 F2625 X121.463 Y107.511
;TYPE:SUPPORT
G1 F600 E13.05218
G1 F900 X121.935 Y107.471 E13.06796
G1 X122.59 Y106.93 E13.09626
G1 X123.085 Y106.773 E13.11356
G1 X123.146 Y106.721 E13.11623
G1 X123.634 Y106.565 E13.13329
G1 X123.706 Y106.502 E13.13648
G1 X124.187 Y106.354 E13.15324
G1 X124.263 Y106.288 E13.15659
G1 X124.75 Y106.134 E13.17361
G1 X124.822 Y106.07 E13.17682
G1 X125.281 Y105.92 E13.1929
G1 X125.346 Y105.863 E13.19578
G1 X125.821 Y105.715 E13.21236
G1 X125.893 Y105.655 E13.21548
G1 X126.37 Y105.504 E13.23214
G1 X126.444 Y105.442 E13.23536
G1 X126.919 Y105.294 E13.25193
G1 X128.522 Y103.979 E13.321
G1 X128.666 Y103.979 E13.32579
G1 X130.262 Y105.286 E13.39451
G1 X130.728 Y105.428 E13.41074
G1 X130.817 Y105.505 E13.41466
G1 X131.313 Y105.661 E13.43198
G1 X131.385 Y105.721 E13.4351
G1 X131.845 Y105.87 E13.4512
G1 X131.924 Y105.934 E13.45459
G1 X132.383 Y106.083 E13.47067
G1 X132.447 Y106.14 E13.47352
G1 X132.934 Y106.286 E13.49046
G1 X133.018 Y106.359 E13.49416
G1 X133.511 Y106.519 E13.51143
G1 X133.573 Y106.569 E13.51408
G1 X134.022 Y106.715 E13.52981
G1 X134.103 Y106.784 E13.53335
G1 X135.374 Y107.174 E13.57764
G1 X136.644 Y106.779 E13.62194
G1 X136.722 Y106.712 E13.62537
G1 X137.193 Y106.563 E13.64182
G1 X137.269 Y106.496 E13.6452
G1 X137.737 Y106.342 E13.66161
G1 X137.803 Y106.284 E13.66454
G1 X138.303 Y106.131 E13.68195
G1 X138.368 Y106.073 E13.68485
G1 X138.832 Y105.925 E13.70108
G1 X138.909 Y105.86 E13.70443
G1 X139.379 Y105.711 E13.72086
G1 X139.46 Y105.641 E13.72442
G1 X139.92 Y105.497 E13.74048
G1 X139.993 Y105.436 E13.74365
G1 X140.481 Y105.283 E13.76068
G1 X142.073 Y103.979 E13.82923
G1 X142.215 Y103.979 E13.83396
G1 X143.812 Y105.279 E13.90256
G1 X144.274 Y105.425 E13.9187
G1 X144.364 Y105.502 E13.92264
G1 X144.853 Y105.66 E13.93976
G1 X144.923 Y105.718 E13.94279
G1 X145.384 Y105.863 E13.95889
G1 X145.459 Y105.929 E13.96221
G1 X145.928 Y106.079 E13.97862
G1 X145.995 Y106.137 E13.98157
G1 X146.482 Y106.294 E13.99861
G1 X146.554 Y106.354 E14.00173
G1 X147.03 Y106.5 E14.01832
G1 X147.103 Y106.562 E14.02151
G1 X147.573 Y106.713 E14.03795
G1 X147.637 Y106.768 E14.04076
G1 X148.119 Y106.918 E14.05758
G1 X148.735 Y107.437 E14.08441
G1 X149.369 Y107.532 E14.10577
G1 X149.58 Y107.442 E14.11341
G1 X149.58 Y108.015 E14.13249
G1 X150.032 Y108.804 E14.16278
G1 X150.423 Y109.329 E14.18459
G1 X150.41 Y109.749 E14.19858
G1 X150.342 Y110.173 E14.21289
G1 X150.281 Y110.369 E14.21973
G1 X150.148 Y110.666 E14.23057
G1 X149.175 Y112.132 E14.28918
G1 X148.041 Y112.97 E14.33614
G1 X147.951 Y112.867 E14.3407
G1 X147.323 Y112.696 E14.36238
G1 X146.009 Y113.139 E14.40857
G1 X145.675 Y113.208 E14.41993
G1 X145.254 Y113.312 E14.43438
G1 X143.982 Y113.666 E14.47836
G1 X143.471 Y113.799 E14.49595
G1 X142.214 Y114.822 E14.54993
G1 X142.071 Y114.822 E14.5547
G1 X141.111 Y114.041 E14.59592
G1 X136.892 Y112.727 E14.74311
G1 X136.807 Y112.663 E14.74666
G1 X135.362 Y112.253 E14.79669
G1 X133.904 Y112.668 E14.84719
G1 X133.82 Y112.733 E14.85073
G1 X129.632 Y114.036 E14.99683
G1 X128.666 Y114.822 E15.03831
G1 X128.523 Y114.822 E15.04307
G1 X127.271 Y113.799 E15.09693
G1 X126.817 Y113.682 E15.11255
G1 X126.797 Y113.664 E15.11344
G1 X125.287 Y113.271 E15.16542
G1 X125.267 Y113.252 E15.16634
G1 X123.324 Y112.75 E15.23318
G1 X122.712 Y112.942 E15.25455
G1 X122.691 Y112.967 E15.25564
G1 X122.063 Y112.504 E15.28163
G1 X121.463 Y112.025 E15.3072
G1 X121.463 Y111.154 E15.33621
G1 X121.021 Y110.581 E15.36032
G1 X120.876 Y110.348 E15.36946
G1 X120.783 Y110.143 E15.37696
G1 X120.689 Y109.728 E15.39113
G1 X120.692 Y109.326 E15.40452
G1 X120.711 Y109.235 E15.40762
G1 X120.8 Y108.93 E15.4182
G1 X120.831 Y108.862 E15.42069
G1 X120.986 Y108.588 E15.43118
G1 X121.463 Y107.945 E15.45785
G1 X121.463 Y107.511 E15.4723
G1 F600 E14.4723
G0 F2625 X126.446 Y108.29
G1 F600 E15.4723
G1 F900 X126.438 Y110.174 E15.53506
G1 X127.133 Y112.355 E15.61131
G1 X130.044 Y112.371 E15.70828
G1 X130.75 Y110.198 E15.78439
G1 X130.744 Y108.291 E15.84791
G1 X130.036 Y106.168 E15.92246
G1 X127.154 Y106.168 E16.01846
G1 X126.446 Y108.29 E16.09297
G1 F600 E15.09297
G0 F2625 X127.942 Y107.261
G0 X128.999 Y107.261
G0 X139.993 Y108.29
G1 F600 E16.09297
G1 F900 X139.985 Y110.174 E16.15573
G1 X140.68 Y112.355 E16.23198
G1 X143.591 Y112.371 E16.32895
G1 X144.297 Y110.198 E16.40505
G1 X144.291 Y108.291 E16.46858
G1 X143.583 Y106.168 E16.54312
G1 X140.701 Y106.168 E16.63913
G1 X139.993 Y108.29 E16.71364
G0 F2625 X139.792 Y108.355
G1 F900 X130.944 Y108.355 E17.00837
G1 F600 E16.00837
G0 F2625 X130.949 Y110.022
G1 F600 E17.00837
G1 F900 X139.785 Y110.022 E17.3027
G0 F2625 X140.028 Y110.966
G1 F900 X140.028 Y113.494 E17.38691
G1 F600 E16.38691
G0 F2625 X141.695 Y114.259
G1 F600 E17.38691
G1 F900 X141.695 Y112.561 E17.44347
G1 F600 E16.44347
G0 F2625 X143.362 Y112.57
G1 F600 E17.44347
G1 F900 X143.362 Y113.631 E17.47881
G1 F600 E16.47881
G0 F2625 X144.344 Y113.356
G1 F600 E17.47881
G1 F900 X139.585 Y113.356 E17.63734
G1 F600 E16.63734
G0 F2625 X138.361 Y112.975
G1 F600 E17.63734
G1 F900 X138.361 Y106.322 E17.85895
G1 F600 E16.85895
G0 F2625 X137.354 Y106.688
G1 F600 E17.85895
G1 F900 X140.316 Y106.688 E17.95762
G0 F2625 X140.028 Y107.553
G1 F900 X140.028 Y105.668 E18.02041
G1 F600 E17.02041
G0 F2625 X141.115 Y105.021
G1 F600 E18.02041
G1 F900 X143.181 Y105.021 E18.08922
G0 F2625 X143.362 Y105.17
G1 F900 X143.362 Y105.968 E18.11581
G0 F2625 X143.967 Y106.688
G1 F900 X146.944 Y106.688 E18.21497
G0 F2625 X146.696 Y106.607
G1 F900 X146.696 Y112.696 E18.4178
G1 F600 E17.4178
G0 F2625 X148.363 Y112.484
G1 F600 E18.4178
G1 F900 X148.363 Y107.385 E18.58765
G1 F600 E17.58765
G0 F2625 X149.545 Y108.355
G1 F600 E18.58765
G1 F900 X144.491 Y108.355 E18.756
G1 F600 E17.756
G0 F2625 X144.496 Y110.022
G1 F600 E18.756
G1 F900 X150.163 Y110.022 E18.94477
G0 F2625 X150.03 Y110.442
G1 F900 X150.03 Y109.137 E18.98824
G1 F600 E17.98824
G0 F2625 X149.228 Y111.689
G1 F600 E18.98824
G1 F900 X144.022 Y111.689 E19.16165
G1 F600 E18.16165
G0 F2625 X145.029 Y113.167
G1 F600 E19.16165
G1 F900 X145.029 Y105.961 E19.40169
G1 F600 E18.40169
G0 F2625 X141.695 Y105.968
G1 F600 E19.40169
G1 F900 X141.695 Y104.546 E19.44905
G1 F600 E18.44905
G0 F2625 X136.694 Y106.972
G1 F600 E19.44905
G1 F900 X136.694 Y112.423 E19.63063
G1 F600 E18.63063
G0 F2625 X135.027 Y112.141
G1 F600 E19.63063
G1 F900 X135.027 Y107.277 E19.79265
G1 F600 E18.79265
G0 F2625 X133.386 Y106.688
G1 F600 E19.79265
G1 F900 X130.42 Y106.688 E19.89145
G1 F600 E18.89145
G0 F2625 X131.693 Y106.031
G1 F600 E19.89145
G1 F900 X131.693 Y113.186 E20.12978
G0 F2625 X131.141 Y113.356
G1 F900 X126.413 Y113.356 E20.28728
G0 F2625 X126.692 Y113.429
G1 F900 X126.692 Y111.629 E20.34723
G0 F2625 X126.712 Y111.689
G1 F900 X121.663 Y111.689 E20.51542
G0 F2625 X121.691 Y111.951
G1 F900 X121.691 Y107.692 E20.65729
G0 F2625 X121.408 Y108.355
G1 F900 X126.245 Y108.355 E20.81841
G1 F600 E19.81841
G0 F2625 X126.692 Y106.921
G1 F600 E20.81841
G1 F900 X126.692 Y105.574 E20.86328
G1 F600 E19.86328
G0 F2625 X127.566 Y105.021
G1 F600 E20.86328
G1 F900 X129.626 Y105.021 E20.9319
G1 F600 E19.9319
G0 F2625 X128.359 Y104.371
G1 F600 E20.9319
G1 F900 X128.359 Y105.968 E20.98509
G1 F600 E19.98509
G0 F2625 X130.026 Y105.968
G1 F600 E20.98509
G1 F900 X130.026 Y105.351 E21.00565
G1 F600 E20.00565
G0 F2625 X126.769 Y106.688
G1 F600 E21.00565
G1 F900 X123.795 Y106.688 E21.10471
G0 F2625 X123.358 Y106.862
G1 F900 X123.358 Y112.552 E21.29425
G1 F600 E20.29425
G0 F2625 X125.025 Y112.982
G1 F600 E21.29425
G1 F900 X125.025 Y106.214 E21.51969
G1 F600 E20.51969
G0 F2625 X126.238 Y110.022
G1 F600 E21.51969
G1 F900 X120.96 Y110.022 E21.6955
G1 F600 E20.6955
G0 F2625 X128.359 Y112.562
G1 F600 E21.6955
G1 F900 X128.359 Y114.43 E21.75773
G1 F600 E20.75773
G0 F2625 X130.026 Y113.705
G1 F600 E21.75773
G1 F900 X130.026 Y112.572 E21.79547
G0 F2625 X130.475 Y111.689
G1 F900 X140.259 Y111.689 E22.12138
G1 F600 E21.12138
G0 F2625 X133.36 Y112.667
G1 F600 E22.12138
G1 F900 X133.36 Y106.681 E22.32077
G1 F600 E21.32077
G0 F2625 X108.223 Y135.087
G0 X107.134 Y141.46
G1 F600 E22.32077
G1 F900 X107.134 Y142.767 E22.36431
G1 X106.333 Y143.342 E22.39715
G1 X105.954 Y143.779 E22.41642
G1 X105.703 Y144.182 E22.43224
G1 X105.492 Y144.672 E22.45001
G1 X105.384 Y145.078 E22.464
G1 X105.317 Y145.525 E22.47906
G1 X105.326 Y146.053 E22.49665
G1 X105.399 Y146.466 E22.51062
G1 X105.536 Y146.926 E22.52661
G1 X105.75 Y147.377 E22.54324
G1 X106.06 Y147.828 E22.56147
G1 X106.769 Y148.555 E22.59529
G1 X107.134 Y148.703 E22.60841
G1 X107.134 Y150.004 E22.65175
G1 X106.747 Y149.86 E22.6655
G1 X106.12 Y149.512 E22.68939
G1 X105.58 Y149.093 E22.71216
G1 X105.096 Y148.575 E22.73577
G1 X104.719 Y148.032 E22.75779
G1 X104.411 Y147.396 E22.78133
G1 X104.206 Y146.736 E22.80435
G1 X104.117 Y146.198 E22.82252
G1 X104.104 Y145.504 E22.84564
G1 X104.171 Y144.905 E22.86571
G1 X104.339 Y144.269 E22.88763
G1 X104.596 Y143.666 E22.90946
G1 X104.958 Y143.076 E22.93252
G1 X105.43 Y142.523 E22.95674
G1 X106.241 Y141.881 E22.99119
G1 X107.134 Y141.46 E23.02408
G0 F2625 X106.688 Y141.89
G1 F900 X106.688 Y142.842 E23.05579
G0 F2625 X106.049 Y143.362
G1 F900 X105.016 Y143.362 E23.0902
G0 F2625 X105.021 Y143.355
G1 F900 X105.021 Y148.115 E23.24876
G0 F2625 X105.191 Y148.363
G1 F900 X106.302 Y148.363 E23.28576
G0 F2625 X106.688 Y148.739
G1 F900 X106.688 Y149.594 E23.31424
G1 F600 E22.31424
G0 F2625 X105.258 Y146.696
G1 F600 E23.31424
G1 F900 X104.401 Y146.696 E23.34279
G1 F600 E22.34279
G0 F2625 X104.357 Y145.029
G1 F600 E23.34279
G1 F900 X105.188 Y145.029 E23.37047
G1 F600 E22.37047
G0 F2625 X108.223 Y135.087
G0 X108.756 Y134.554
G0 X149.317 Y134.554
